assets/images/Image/Femaleicon.svg

<svg width="48" height="48" viewBox="0 0 48 48" fill="none" xmlns="http://www.w3.org/2000/svg">
<path d="M14.5 19.5C14.5 19.5 24 19.5 28.5 15.5C28.5 15.5 36.5 16.5 36.5 25.5C36 35 30.6 42.5 24 42.5C17.4 42.5 12 35 11.5 25.5" stroke="#142939" stroke-width="3" stroke-miterlimit="10" stroke-linecap="round" stroke-linejoin="round"/>
<path d="M5.6 20.8C4.9 23.8 4.5 27.4 4.5 31.5V36.5C4.5 38.7 6.3 40.5 8.5 40.5H12.1" stroke="#142939" stroke-width="3" stroke-miterlimit="10" stroke-linecap="round" stroke-linejoin="round"/>
<path d="M36.5 40.5H39.5C41.7 40.5 43.5 38.7 43.5 36.5V31.5C43.5 12.5 34.3 8 30 8C30 8 28 5.5 23 5.5C17.3 5.5 12 7.9 8.5 13.6" stroke="#142939" stroke-width="3" stroke-miterlimit="10" stroke-linecap="round" stroke-linejoin="round"/>
<path d="M19 30C20.1046 30 21 29.1046 21 28C21 26.8954 20.1046 26 19 26C17.8954 26 17 26.8954 17 28C17 29.1046 17.8954 30 19 30Z" fill="#142939"/>
<path d="M29 30C30.1046 30 31 29.1046 31 28C31 26.8954 30.1046 26 29 26C27.8954 26 27 26.8954 27 28C27 29.1046 27.8954 30 29 30Z" fill="#142939"/>
</svg>

<svg xmlns="http://www.w3.org/2000/svg"  viewBox="0 0 48 48" width="48px" height="48px"><path fill="none" stroke="#000" stroke-linecap="round" stroke-linejoin="round" stroke-miterlimit="10" stroke-width="3" d="M14.5,19.5c0,0,9.5,0,14-4c0,0,8,1,8,10c-0.5,9.5-5.9,17-12.5,17s-12-7.5-12.5-17"/><path fill="none" stroke="#000" stroke-linecap="round" stroke-linejoin="round" stroke-miterlimit="10" stroke-width="3" d="M5.6,20.8c-0.7,3-1.1,6.6-1.1,10.7v5c0,2.2,1.8,4,4,4h3.6"/><path fill="none" stroke="#000" stroke-linecap="round" stroke-linejoin="round" stroke-miterlimit="10" stroke-width="3" d="M36.5,40.5h3c2.2,0,4-1.8,4-4v-5C43.5,12.5,34.3,8,30,8c0,0-2-2.5-7-2.5c-5.7,0-11,2.4-14.5,8.1"/><circle cx="19" cy="28" r="2"/><circle cx="29" cy="28" r="2"/></svg>
